X:1
T:Title
%%score { 1 | 2 }
L:1/8
M:3/4
K:Ab
V:1 treble nm="Grand Piano"
V:2 bass 
V:1
 z2 z[Q:1/4=90] [Ec] [Ec][Ec] | [Ec]3 [Ec] [EB][EA] | [DF]3 [FA] [FB][Fd] | c3 e dc | %4
[M:3/8] [GB]3 | Bcd |[M:3/4] [Ec]3 [Ec] [EB][EA] | [DF]3 [FA] [FB][Fd] | c3 A GB |[M:3/8] [CEA]3 | %10
 cec |[M:3/4] e3 c Bc | [Gd]3 [GB] [Gd][GB] | [Gd]3 [EGB] [EA][EGB] |[M:3/8] c3 | cec | %16
[M:3/4] e3 [EAc] [DEB][CEA] | [A,DF]3 [A,FA] [FB][Fd] | c3 A GB |[M:3/8] [CEA]3 |] %20
V:2
 z2 z [A,,A,] [A,,A,][A,,A,] | [A,,A,]3 [A,,A,] [B,,G,][C,A,] | [D,A,]3 [D,A,] [D,A,][D,A,] | %3
 [A,E]3 [CEA] [B,EG][A,EA] |[M:3/8][K:bass] [E,E]3 | [E,G,E][E,A,E][E,B,E] | %6
[M:3/4] [A,,A,]3 [A,,A,] [B,,G,][D,A,] | [D,A,]3 [D,A,] [D,A,][D,A,] | %8
 [E,A,E]3 [E,CE] [E,B,E][E,DE] |[M:3/8] A,,3 | [A,E][A,CA][A,EA] | %11
[M:3/4] [A,CA]3 [A,EA] [G,E][A,EA] | [E,E]3 [E,E] [E,B,][E,E] | [E,B,]3 D, C,E, | %14
[M:3/8][K:treble] [A,EA]3 | [A,E][A,CA][A,EA] |[M:3/4] [A,CA]3[K:bass] A,, B,,C, | %17
 D,3 D, [D,A,][D,A,] | [E,A,E]3 [E,CE] [E,B,E][E,DE] |[M:3/8] A,,3 |] %20

